svg/fire.svg

<svg xmlns="http://www.w3.org/2000/svg" viewBox="0 0 24 24"><path d="M17.66 11.2c-.23-.3-.51-.56-.77-.82-.67-.6-1.43-1.03-2.07-1.66C13.33 7.26 13 4.85 13.95 3c-.95.23-1.78.75-2.49 1.32-2.59 2.08-3.61 5.75-2.39 8.9.04.1.08.2.08.33 0 .22-.15.42-.35.5-.23.1-.47.04-.66-.12a.6.6 0 0 1-.14-.17c-1.13-1.43-1.31-3.48-.55-5.12C5.78 10 4.87 12.3 5 14.47c.06.5.12 1 .29 1.5.14.6.41 1.2.71 1.73 1.08 1.73 2.95 2.97 4.96 3.22 2.14.27 4.43-.12 6.07-1.6 1.83-1.66 2.47-4.32 1.53-6.6l-.13-.26c-.21-.46-.77-1.26-.77-1.26m-3.16 6.3c-.28.24-.74.5-1.1.6-1.12.4-2.24-.16-2.9-.82 1.19-.28 1.9-1.16 2.11-2.05.17-.8-.15-1.46-.28-2.23-.12-.74-.1-1.37.17-2.06.19.38.39.76.63 1.06.77 1 1.98 1.44 2.24 2.8.04.14.06.28.06.43.03.82-.33 1.72-.93 2.27"/></svg>

<?xml version="1.0" encoding="UTF-8"?><!DOCTYPE svg PUBLIC "-//W3C//DTD SVG 1.1//EN" "http://www.w3.org/Graphics/SVG/1.1/DTD/svg11.dtd"><svg xmlns="http://www.w3.org/2000/svg" xmlns:xlink="http://www.w3.org/1999/xlink" version="1.1" id="mdi-fire" width="24" height="24" viewBox="0 0 24 24"><path d="M17.66 11.2C17.43 10.9 17.15 10.64 16.89 10.38C16.22 9.78 15.46 9.35 14.82 8.72C13.33 7.26 13 4.85 13.95 3C13 3.23 12.17 3.75 11.46 4.32C8.87 6.4 7.85 10.07 9.07 13.22C9.11 13.32 9.15 13.42 9.15 13.55C9.15 13.77 9 13.97 8.8 14.05C8.57 14.15 8.33 14.09 8.14 13.93C8.08 13.88 8.04 13.83 8 13.76C6.87 12.33 6.69 10.28 7.45 8.64C5.78 10 4.87 12.3 5 14.47C5.06 14.97 5.12 15.47 5.29 15.97C5.43 16.57 5.7 17.17 6 17.7C7.08 19.43 8.95 20.67 10.96 20.92C13.1 21.19 15.39 20.8 17.03 19.32C18.86 17.66 19.5 15 18.56 12.72L18.43 12.46C18.22 12 17.66 11.2 17.66 11.2M14.5 17.5C14.22 17.74 13.76 18 13.4 18.1C12.28 18.5 11.16 17.94 10.5 17.28C11.69 17 12.4 16.12 12.61 15.23C12.78 14.43 12.46 13.77 12.33 13C12.21 12.26 12.23 11.63 12.5 10.94C12.69 11.32 12.89 11.7 13.13 12C13.9 13 15.11 13.44 15.37 14.8C15.41 14.94 15.43 15.08 15.43 15.23C15.46 16.05 15.1 16.95 14.5 17.5H14.5Z" /></svg>
